X:1
T:Mason, 664.66.64
T:Mason, 664.66.64
T:William Fiske Sherwin (1826-1888)
T:Public Domain Courtesy of the Cyber Hymnal™
C:William Fiske Sherwin (1826-1888)
Z:Public Domain
Z:Courtesy of the Cyber Hymnal™
%%score ( 1 2 ) ( 3 4 )
L:1/8
Q:1/4=110
M:4/4
K:Ab
V:1 treble 
V:2 treble 
V:3 bass 
V:4 bass 
V:1
 c4 [EB]2 [EA]2 | [DA]3 [DG] [DG]4 | [CA]4 [EB]2 [Ec]2 | [Ee]3 [Ed] [Ec]4 | [GB]4 [FA]2 [=DF]2 | %5
 E6 z2 | [EB]4 [FB]2 [Fc]2 | [Fd]3 [Fc] [FB]4 | [EG]4 [EA]2 [EB]2 | [Ec]3 [EB] [EA]4 | %10
 [EB]4 [Ec]2 [Ed]2 | [Ae]3 [Af] [Ae]4 | [Ac]4 A2 [GB]2 | A8 |] %14
V:2
 (C2 E2) x4 | x8 | x8 | x8 | x8 | E6 x2 | x8 | x8 | x8 | x8 | x8 | x8 | x4 A2 x2 | A8 |] %14
V:3
 [A,,A,]4 [A,,D]2 [A,,C]2 | [E,B,]3 [E,B,] [E,B,]4 | [F,A,]4 [E,G,]2 A,2 | [G,B,]3 [G,B,] A,4 | %4
 (E2 B,2) [B,,B,]2 [B,,A,]2 | [E,G,]6 z2 | [E,G,]4 [D,F,]2 [C,=A,]2 | [B,,B,]3 [C,=A,] [D,B,]4 | %8
 B,4 [C,A,]2 [B,,G,]2 | [A,,A,]3 [B,,G,] [C,A,]4 | [E,G,]4 A,2 [A,B,]2 | [A,C]3 [A,D] [A,C]4 | %12
 [E,E]4 [E,C]2 [E,D]2 | [A,,C]8 |] %14
V:4
 x8 | x8 | x6 A,2 | x4 A,4 | B,4 x4 | x8 | x8 | x8 | (E,2 D,2) x4 | x8 | x4 A,2 x2 | x8 | x8 | %13
 x8 |] %14

